X: 1
T: Ale is Dear
T: Maighstir Ord
N: Fiddlers  Five  CD 7, as trad, follows Spootiskerry, Scots Guards #341, Logan's p.33
Z: John Chambers <jc@trillian.mit.edu>
M: C|
L: 1/8
K: BDor
|: "Bm"{e}~f2ef B2ce | "A"faea cAce | "Bm"~f2ef B2ce | "F#m"faec "Bm"B4 :|
|| "Bm"{A}~B2Bc d2cB | "A"cAAB ABcA | "G"{A}~B2Bc d2cB | "F#m"f2{a}ec "Bm"B4 ||
|| "Bm"{A}~B2Bc d2cB | "A"cAAB ABcA | "D"~d2fd "A"~c2ec | "F#m"f2{a}ec "Bm"B4 |]
%%sep 5 5 234
K:C
x8 x8 x8 x8 |
x8 x8 x8 x8 |
x8 x8 x8 x8 |
x8 x8 x8 x8 |
